Yaru++/apps/16/xbmc.svg

<svg height="16" viewBox="0 0 16 16" width="16" xmlns="http://www.w3.org/2000/svg">
  <path d="m10.143179 3.9664454-.239305 1.649163h-1.444019c-.877335 0-1.689729.3108306-2.436824.9310686-.19039.155851-.367388.327375-.529142.512774-.08956-.183335-.200466-.355453-.330401-.512774-.511173-.620238-1.209519-.9310686-2.086854-.9310686h-1.865515c-.06672.3483726 0 .6446156.196959.8903256.198562.245887.470427.371147.8204.371147h.610452c.52256 0 .931068.187172 1.225707.564903.29464.377729.393921.830184.29464 1.352744-.09928.524158-.366162.970211-.80403 1.342958-.438046.371146-.923062.560099-1.444019.560099h-.610451c-.349976 0-.66899.120454-.962028.366165-.293039.24589-.473629.540529-.538749.890502h1.871923c.877512 0 1.684925-.306026 2.43202-.921459.190301-.155981.3668-.328079.527541-.514374.09086.184558.203971.357298.336806.514374.511174.615433 1.203113.921459 2.080449.921459h1.8721c.06672-.349973 0-.644612-.198563-.890502-.198738-.245711-.475408-.366165-.823781-.366165h-.60547c-.524158 0-.934449-.188953-1.230689-.560099-.29802-.372747-.397301-.8188-.29624-1.342958.09928-.52256.369367-.975015.809014-1.352744.439468-.377731.922883-.564903 1.44544-.564903h.610451c.340191 0 .652798-.122055.941032-.356379l-.33058 2.259435c-.131838.892103.07651 1.647386.630024 2.272426.540529.634829 1.268054.947437 2.147169.947437.895304 0 1.709299-.312608 2.441805-.947437.73251-.62504 1.171978-1.380323 1.302216-2.272426.13024-.893703-.08131-1.648984-.618637-2.274203-.553338-.6202371-1.286024-.9360494-2.181327-.9360494h-1.904481l.03257-.2489153c.06512-.3679418-.01636-.6903392-.260481-.9572232-.211726-.26706-.515975-.3973007-.887118-.3973007zm.919682 2.8846566h1.920852c.520956 0 .944232.182371 1.269655.559923.293038.376127.407084.839973.341966 1.369112-.08149.528963-.325598.981598-.748877 1.36253-.423276.384134-.895304.579495-1.432453.579495-.537325 0-.960424-.195361-1.269831-.579495-.30923-.380932-.4231-.833567-.357983-1.36253z" fill="#808080"/>
</svg>

<svg xmlns="http://www.w3.org/2000/svg" id="Layer_1" width="16" height="16" x="0" y="0" version="1.1" viewBox="0 0 16 16" xml:space="preserve">
 <defs>
  <linearGradient id="SVGID_5_-3" x1="108.665" x2="148.682" y1="14.821" y2="241.771" gradientTransform="matrix(0.52087855,0,0,0.52087855,-3.110462,-1.8390549)" gradientUnits="userSpaceOnUse">
   <stop id="stop50-6" offset="0" stop-color="#FF8C8F" style="stop-color:#e4e4e4"/>
   <stop id="stop52-7" offset=".38" stop-color="#F21818" style="stop-color:#959595"/>
   <stop id="stop54-5" offset=".446" stop-color="#E51515" style="stop-color:#808080"/>
   <stop id="stop56-3" offset=".568" stop-color="#C20E0E" style="stop-color:#6a6a6a"/>
   <stop id="stop58-5" offset=".732" stop-color="#8A0202" style="stop-color:#383838"/>
   <stop id="stop60-6" offset=".866" stop-color="#800000" style="stop-color:#1d1d1d"/>
  </linearGradient>
 </defs>
 <linearGradient id="SVGID_5_" x1="108.665" x2="148.682" y1="14.821" y2="241.771" gradientTransform="matrix(0.52087855,0,0,0.52087855,-3.1102526,-1.8390549)" gradientUnits="userSpaceOnUse">
  <stop id="stop50" offset="0" stop-color="#FF8C8F"/>
  <stop id="stop52" offset=".38" stop-color="#F21818"/>
  <stop id="stop54" offset=".446" stop-color="#E51515"/>
  <stop id="stop56" offset=".568" stop-color="#C20E0E"/>
  <stop id="stop58" offset=".732" stop-color="#8A0202"/>
  <stop id="stop60" offset=".761" stop-color="#800000"/>
 </linearGradient>
 <linearGradient id="SVGID_6_" x1="127.776" x2="127.776" y1="216.71" y2="239.295" gradientUnits="userSpaceOnUse">
  <stop id="stop65" offset="0" stop-color="#FF444C" stop-opacity="0"/>
  <stop id="stop67" offset=".237" stop-color="#FF393F" stop-opacity=".237"/>
  <stop id="stop69" offset=".671" stop-color="#FF1B1E" stop-opacity=".671"/>
  <stop id="stop71" offset="1" stop-color="#F00"/>
 </linearGradient>
 <linearGradient id="SVGID_7_" x1="126.991" x2="129.357" y1="217.542" y2="24.048" gradientTransform="translate(1.379521,5.5180838)" gradientUnits="userSpaceOnUse">
  <stop id="stop76" offset="0" stop-color="#E60000"/>
  <stop id="stop78" offset=".357" stop-color="#DC0B0A"/>
  <stop id="stop80" offset=".981" stop-color="#C02825"/>
  <stop id="stop82" offset="1" stop-color="#BF2926"/>
 </linearGradient>
 <linearGradient id="SVGID_8_" x1="128.297" x2="128.297" y1="216.157" y2="25.654" gradientTransform="translate(1.9313293,6.8976048)" gradientUnits="userSpaceOnUse">
  <stop id="stop87" offset="0" stop-color="#B80000"/>
  <stop id="stop89" offset="1" stop-color="#900"/>
 </linearGradient>
 <linearGradient id="SVGID_13_" x1="22.349" x2="234.41" y1="182.15" y2="182.15" gradientUnits="userSpaceOnUse">
  <stop id="stop152" offset="0" stop-color="#E8000F"/>
  <stop id="stop154" offset="1" stop-color="#E0000F"/>
 </linearGradient>
 <linearGradient id="SVGID_14_" x1="128.261" x2="128.261" y1="104.655" y2="1.642" gradientTransform="translate(46.627808,3.3108503)" gradientUnits="userSpaceOnUse">
  <stop id="stop159" offset="0" stop-color="#FFF" stop-opacity="0"/>
  <stop id="stop161" offset="1" stop-color="#FFF"/>
 </linearGradient>
 <path style="isolation:isolate;fill:#808080" d="M 10.143179,3.9664454 9.903874,5.6156084 H 8.459855 C 7.58252,5.6156084 6.770126,5.926439 6.023031,6.546677 5.832641,6.702528 5.655643,6.874052 5.493889,7.059451 5.404329,6.876116 5.293423,6.703998 5.163488,6.546677 4.652315,5.926439 3.953969,5.6156084 3.076634,5.6156084 H 1.211119 c -0.06672,0.3483726 0,0.6446156 0.196959,0.8903256 0.198562,0.245887 0.470427,0.371147 0.8204,0.371147 H 2.83893 c 0.52256,0 0.931068,0.187172 1.225707,0.564903 0.29464,0.377729 0.393921,0.830184 0.29464,1.352744 -0.09928,0.524158 -0.366162,0.970211 -0.80403,1.342958 -0.438046,0.371146 -0.923062,0.560099 -1.444019,0.560099 H 1.500777 c -0.349976,0 -0.66899,0.120454 -0.962028,0.366165 C 0.24571,11.30984 0.06512,11.604479 0,11.954452 h 1.871923 c 0.877512,0 1.684925,-0.306026 2.43202,-0.921459 0.190301,-0.155981 0.3668,-0.328079 0.527541,-0.514374 0.09086,0.184558 0.203971,0.357298 0.336806,0.514374 0.511174,0.615433 1.203113,0.921459 2.080449,0.921459 h 1.8721 c 0.06672,-0.349973 0,-0.644612 -0.198563,-0.890502 C 8.723538,10.818239 8.446868,10.697785 8.098495,10.697785 h -0.60547 c -0.524158,0 -0.934449,-0.188953 -1.230689,-0.560099 C 5.964316,9.764939 5.865035,9.318886 5.966096,8.794728 6.065376,8.272168 6.335463,7.819713 6.77511,7.441984 7.214578,7.064253 7.697993,6.877081 8.22055,6.877081 h 0.610451 c 0.340191,0 0.652798,-0.122055 0.941032,-0.356379 L 9.441453,8.780137 C 9.309615,9.67224 9.517963,10.427523 10.071477,11.052563 10.612006,11.687392 11.339531,12 12.218646,12 c 0.895304,0 1.709299,-0.312608 2.441805,-0.947437 0.73251,-0.62504 1.171978,-1.380323 1.302216,-2.272426 C 16.092907,7.886434 15.881357,7.131153 15.34403,6.505934 14.790692,5.8856969 14.058006,5.5698846 13.162703,5.5698846 h -1.904481 l 0.03257,-0.2489153 C 11.355912,4.9530275 11.274432,4.6306301 11.030311,4.3637461 10.818585,4.0966861 10.514336,3.9664454 10.143193,3.9664454 Z m 0.919682,2.8846566 h 1.920852 c 0.520956,0 0.944232,0.182371 1.269655,0.559923 0.293038,0.376127 0.407084,0.839973 0.341966,1.369112 -0.08149,0.528963 -0.325598,0.981598 -0.748877,1.36253 -0.423276,0.384134 -0.895304,0.579495 -1.432453,0.579495 -0.537325,0 -0.960424,-0.195361 -1.269831,-0.579495 -0.30923,-0.380932 -0.4231,-0.833567 -0.357983,-1.36253 z"/>
</svg>
